packages/core/src/svgs/tokens/branded/METAL.svg

<svg width="24" height="24" viewBox="0 0 24 24" fill="none" xmlns="http://www.w3.org/2000/svg">
<path d="M12.003 2C13.3161 2.00038 14.6164 2.25942 15.8295 2.76232C17.0426 3.26523 18.1448 4.00215 19.0731 4.93099C20.0015 5.85985 20.7378 6.96247 21.2398 8.17587C21.742 9.38932 22.0004 10.6897 22 12.003C21.9996 13.3161 21.7405 14.6164 21.2376 15.8295C20.7347 17.0426 19.9978 18.1448 19.069 19.0731C18.1402 20.0015 17.0375 20.7376 15.8241 21.2398C14.6107 21.742 13.3102 22.0003 11.9971 22C9.34486 21.9992 6.80166 20.9448 4.92685 19.069C3.05204 17.193 1.99922 14.6492 2 11.9971C2.00078 9.34486 3.0551 6.80165 4.93101 4.92684C6.80692 3.05204 9.35076 1.99922 12.003 2Z" fill="#181B1E"/>
<path d="M9.94485 12.0854C11.0306 12.2657 12.1323 12.3328 13.2321 12.2853C11.9677 12.3677 11.0386 12.3559 9.82135 12.2676C9.05682 13.0497 9.85072 13.6554 9.95651 14.3083C10.2799 14.2788 10.4741 14.2082 10.7034 14.3494C12.8616 14.3083 14.4846 14.5141 16.4252 13.6908L16.4605 13.3203L16.0841 13.1732C16.3547 12.791 16.3017 13.2203 16.3194 12.7029C16.3311 12.497 16.3429 12.4205 16.1018 12.3088C15.9137 10.5446 14.6492 10.727 13.3026 10.8562C12.45 10.9445 10.4682 11.362 10.621 10.2094H10.4329C10.4329 10.2094 8.40995 10.8562 9.93894 12.0912L9.94485 12.0854Z" fill="#C0C0C0"/>
<path d="M7.29883 20.23C7.71047 20.4475 9.32179 21.1943 9.88629 21.1532L10.1098 21.1061C9.83333 20.0594 10.0509 19.6949 10.0686 19.2832C10.0686 19.0362 10.0098 19.0244 9.98042 18.6951L9.06301 18.3776L9.07478 14.1612L9.98042 14.2964C9.88039 13.6437 10.0568 12.8675 9.81576 12.2794C9.03361 12.1618 7.92805 11.9971 7.29883 11.6326V20.23Z" fill="#F6F6F6"/>
<path d="M10.0859 18.701H9.98011C10.0154 19.0185 10.0624 19.0362 10.0624 19.2773C10.0565 19.7008 9.83302 20.0594 10.1095 21.1003L9.88599 21.1532C9.90945 21.1709 9.95062 21.1532 9.97422 21.1943C10.0918 21.4649 12.7969 21.4297 13.4496 21.3355C14.7316 21.1532 15.2432 20.8534 16.3017 20.5004C16.8898 19.9477 16.5487 19.6066 17.2191 19.3185C17.2603 19.2832 16.3488 18.4188 16.3135 18.4129C15.8195 18.4481 15.5255 18.6362 14.9021 18.7481C14.3788 18.8363 13.9024 18.9068 13.3556 18.948C12.0736 19.0597 11.309 18.7951 10.0859 18.7069V18.701ZM12.7793 15.1432C12.9087 15.449 13.0145 17.225 12.7793 17.5013C12.2089 18.1834 12.0147 17.4954 10.5446 17.766C10.3153 17.4308 10.0565 15.7195 10.2506 15.1961C10.3447 14.961 10.8739 14.9374 11.4268 14.9374C11.9972 14.9374 12.6028 14.9785 12.7793 15.1432ZM9.99178 14.4846L10.0154 16.2487C9.99178 16.5605 9.90945 16.9191 9.92715 17.2721C9.97421 17.9189 10.1036 17.5955 9.92125 18.3069L10.327 18.3952C11.5503 18.4363 12.5087 18.5834 13.7848 18.4658C14.4434 18.407 16.2724 18.2423 16.5016 17.7836L16.5311 17.225C16.0077 17.2014 16.1841 17.3838 15.549 17.4013C15.1844 16.8486 15.108 15.6372 15.2667 14.7727C15.5785 14.5964 16.0724 14.467 16.5016 14.2964C16.584 13.8907 16.5958 14.1024 16.384 13.9847L14.7552 14.4258C14.5494 15.1902 14.661 14.6551 14.4318 15.1079C14.314 15.3255 14.3083 15.649 14.2317 15.8725C14.0436 14.0317 14.4082 15.3549 14.3552 14.4846C12.6852 14.6257 11.5796 14.5023 9.99178 14.4846Z" fill="#C0C0C0"/>
<path d="M10.6095 10.2211C10.5567 10.6915 10.6213 10.5739 10.345 10.8562C11.521 11.0326 12.2856 11.062 13.3147 10.9562C13.8262 10.8973 14.5555 10.9444 14.9729 11.1561C15.2553 11.2973 14.9965 11.2266 15.3259 11.0738C15.2965 11.4384 15.3081 11.4679 15.2142 11.7265C15.2435 11.7148 15.2729 11.656 15.2965 11.6853C15.3199 11.7089 15.4846 11.5384 15.8316 11.4384C15.808 11.4679 15.7787 11.4679 15.7728 11.5031C15.761 11.5443 15.7257 11.5559 15.7139 11.5736L15.5787 11.8441C15.9904 11.8088 15.8433 11.7972 15.9668 11.8971C15.6727 12.0147 15.4846 11.8441 15.8021 12.2088L16.0079 12.2852L16.0491 12.2969C16.0609 12.2969 16.0844 12.3087 16.0903 12.3205C16.3256 12.4263 16.3138 12.497 16.3138 12.7085C16.3138 12.8791 16.3314 12.7968 16.0727 13.1791L16.4491 13.3319L16.4137 13.7024L17.8839 12.8909V10.8209C17.2899 11.0915 17.0077 11.4443 16.1198 11.6266C16.7901 11.2796 17.8721 10.668 17.8839 9.94477C17.8839 9.79178 17.8369 9.62712 17.7309 9.46247C17.584 9.23904 17.4958 9.28025 17.3488 9.05674C17.1723 8.79799 17.2899 8.88621 17.0311 8.63922L16.9254 8.74507C16.5726 9.12143 16.3668 9.30961 15.8962 9.5684C15.4257 9.82128 14.9318 9.97414 14.3379 10.0917C13.2088 10.3094 11.821 10.4328 10.6095 10.2211Z" fill="#9A9A9A"/>
<path d="M7.29868 20.2299V11.6383C7.09607 11.5631 6.90579 11.458 6.73414 11.3267C6.5342 11.1738 6.3519 11.015 6.12256 10.9268V19.336C6.13432 19.6889 6.18724 19.8536 7.29868 20.2299Z" fill="#C1C1C1"/>
<path d="M7.68672 9.9506C7.49853 10.3917 7.31035 10.9269 7.41033 11.362C7.52793 11.5384 8.25713 11.7561 8.48648 11.8148C8.95692 11.9324 9.42735 12.0677 9.92722 12.0854L10.2447 10.4505C10.6505 9.70951 10.186 10.8327 10.4094 10.2212C9.46851 10.1036 8.80403 9.78018 8.05131 9.59192C7.89254 9.76248 7.85137 9.80954 7.68672 9.9506Z" fill="#F0F0F0"/>
<path d="M8.35672 9.32142C8.89772 9.7918 10.9618 10.0271 11.9027 10.0388C12.9495 10.0624 14.9018 9.88002 15.5604 9.32142V9.16848C15.384 9.23905 13.7845 9.63894 13.4788 9.59187L13.4729 9.53891L12.8318 9.6978C12.3085 9.72127 11.5263 9.70947 11.0442 9.56841C10.1797 9.30962 10.4561 9.05088 10.0444 8.35109C10.2032 7.89828 9.66215 8.15114 9.71511 7.72186L8.96829 7.86299C8.69779 7.89239 8.55665 8.02764 8.40375 8.20406C8.03916 8.64511 7.95683 8.83917 8.35083 9.32142H8.35672Z" fill="#EBEBEB"/>
<path d="M11.9854 8.1335C11.7914 7.94531 11.6443 7.83947 11.6326 7.54543C11.6208 7.17495 11.7561 7.17495 11.9677 6.9221L12.6675 6.96326C12.9616 7.09262 13.532 8.24522 11.9854 8.13938V8.1335ZM10.7857 6.73979C10.5153 5.52838 11.9442 5.49899 12.2147 6.04C12.5852 6.7692 11.3327 7.15732 10.7857 6.74568V6.73979ZM10.6505 5.64011C10.5917 5.89886 10.5917 5.68128 10.3977 6.04L10.4212 6.53986L10.7682 7.33374C10.7682 7.33374 12.3971 9.59187 13.4085 8.28639C13.9966 7.53367 12.3971 6.12233 12.1853 5.58132C12.0163 5.55145 11.8453 5.53376 11.6738 5.52838C11.3445 5.52838 11.1974 5.55779 10.6505 5.64011Z" fill="#C6C6C6"/>
<path d="M8.35702 9.32144C7.95714 8.83919 8.03947 8.64512 8.41583 8.21585C8.5746 8.03942 8.70986 7.90417 8.98036 7.87476L9.59782 7.96298C9.53896 8.39814 9.5214 8.10412 9.35674 8.55692C9.76248 9.25083 10.18 9.32144 11.062 9.58009C11.5325 9.72128 12.3088 9.73898 12.8439 9.70948L13.4791 9.55073C12.3852 9.50956 11.3267 9.63895 11.0915 8.63925L10.9503 8.48635C10.8812 8.41985 10.8086 8.35704 10.7327 8.29818C10.2742 7.91593 10.0683 7.88654 9.70952 7.41608L9.61553 7.29846C9.12739 7.29846 8.66282 7.5925 8.37467 7.863C7.9983 8.20408 7.7278 8.4393 7.85129 9.1391L8.35114 9.31554L8.35702 9.32144Z" fill="#C1C1C1"/>
<path d="M16.32 18.4247C16.2435 18.6893 16.4494 19.3832 16.2258 19.5773L16.461 19.6596C16.4787 20.1477 16.3552 20.1477 16.3141 20.5123C16.8845 20.2417 17.4137 19.9478 17.8842 19.7302V17.4368L16.5081 18.2776C16.3316 18.3952 16.4494 18.2835 16.32 18.4247Z" fill="#9A9A9A"/>
<path d="M13.4792 9.59781C13.7967 9.63898 15.3844 9.24498 15.5609 9.18028V9.32736C16.0314 9.19793 16.196 9.09795 16.4606 8.85097C16.0725 7.47491 14.1495 6.8398 13.3027 6.88097L13.5732 7.34553C13.8144 7.71601 13.585 7.55724 14.0672 7.67485C14.4201 7.76306 15.0669 7.93359 15.2434 8.15706C15.802 8.86273 14.62 9.15676 14.1495 9.30966C14.0143 9.35082 13.9379 9.36853 13.8379 9.42135L13.4851 9.59781H13.4792Z" fill="#C0C0C0"/>
<path d="M16.3838 13.9846C16.5955 14.114 16.5837 13.9023 16.5014 14.2964C16.9071 14.1317 16.8778 14.0612 17.3483 14.0553C17.4365 14.6728 17.3953 15.3078 17.3894 15.9664C17.3776 17.1131 17.0131 16.6898 16.5191 17.225L16.4897 17.7836C16.9601 17.6071 17.1247 17.5484 17.4834 17.225C17.9246 16.8838 17.8834 16.7192 17.8834 16.0783V13.1732L16.3838 13.9846Z" fill="#959595"/>
<path d="M16.602 8.62758C17.8663 6.9516 14.2204 6.09302 12.762 6.0401C13.0207 6.59288 13.0207 6.49879 13.6912 6.62816C15.8845 7.07509 16.161 7.94542 16.5609 8.56877C16.5727 8.57464 16.5961 8.60993 16.602 8.62758Z" fill="#989898"/>
<path d="M9.92162 18.3069C10.1099 17.5954 9.98049 17.9247 9.92752 17.272C9.90982 16.9191 9.99215 16.5604 10.0158 16.2487L9.99215 14.4845L9.2395 14.4022C9.41009 15.0667 9.28069 16.7897 9.31596 17.6836C9.33352 18.2245 9.37469 18.207 9.92162 18.3069Z" fill="#F3F3F3"/>
<path d="M10.4151 6.53996L10.3976 6.0401C10.1622 6.34001 10.1917 6.06951 9.30368 6.34001C8.75092 6.51643 8.59803 6.57524 8.12759 6.81046C7.49835 7.13389 6.69271 7.83957 7.41015 8.66286C7.42191 8.64521 7.44543 8.59229 7.45131 8.60405C7.49835 8.72167 7.516 8.50408 7.53951 8.48644C8.67448 6.68697 9.48014 7.21622 10.421 6.54583L10.4151 6.53996Z" fill="#989898"/>
<path d="M7.41659 11.3678C7.42837 10.8562 7.49892 10.3917 7.68711 9.95646C7.17549 9.83297 6.91086 9.54482 6.6874 9.20966C6.44041 9.32733 6.38161 9.32143 6.27577 9.66831C6.19344 9.95056 6.19344 10.2329 6.2934 10.5034C6.44042 10.8621 7.08728 11.2326 7.41072 11.3678H7.41659Z" fill="#C1C1C1"/>
<path d="M15.6493 16.7015C16.0728 16.731 16.6961 16.5839 16.996 16.4429C17.3841 16.2664 17.2782 15.8841 17.2959 15.5255C17.1371 15.6607 17.1842 15.6842 17.143 15.8018C17.0548 16.1195 17.1842 16.1664 16.5667 16.2311L16.3609 15.8136L15.5317 15.9194C15.5317 16.2134 15.5435 16.4604 15.6493 16.6958V16.7015Z" fill="#B7B7B7"/>
<path d="M9.98016 18.701H10.086V18.3835H10.3211L9.92129 18.2952C9.37436 18.1952 9.33319 18.2129 9.31563 17.6719C9.28037 16.7781 9.40976 15.0785 9.23916 14.414L9.99182 14.4963C10.1624 14.3963 9.92129 14.3905 10.3388 14.3494H10.7152C10.48 14.2082 10.3036 14.2552 9.98016 14.2846L9.07452 14.1552L9.06274 18.3658L9.98016 18.6951V18.701Z" fill="#676767"/>
<path d="M9.60352 7.28087L9.69764 7.39848C10.0504 7.8748 10.2739 7.90421 10.7209 8.28645C10.7987 8.34512 10.8732 8.40795 10.9442 8.47464L11.0795 8.62754C11.1325 8.39231 11.1971 8.29822 11.2677 8.14532L10.7679 7.3338L10.4621 6.96332C10.1505 7.02213 9.8564 7.06329 9.60352 7.28087Z" fill="#9A9A9A"/>
<path d="M10.8503 16.631L12.5733 16.7015L12.5908 16.137C10.9679 16.1959 12.3556 16.3016 11.1442 16.431L10.8267 16.1135L10.8503 16.631Z" fill="#C0C0C0"/>
<path d="M6.69263 9.20968C6.91021 9.53894 7.16895 9.83299 7.68646 9.95058C7.85111 9.80952 7.89228 9.76246 8.05694 9.5801C8.03929 9.56254 8.01577 9.49777 8.00988 9.52137C7.99812 9.53894 7.96285 9.46841 7.95107 9.46251L7.53943 9.15087C7.3395 8.99798 7.26305 8.89801 7.05723 8.69806C6.95137 8.82744 6.96314 8.80979 6.88082 8.93329L6.69263 9.20968Z" fill="#9A9A9A"/>
<path d="M11.0682 6.73387C11.5269 6.80442 11.8092 6.61625 12.115 6.45159L12.0386 5.99878C11.3329 5.85177 10.6625 6.03995 11.0682 6.73387ZM12.8442 7.76297C12.856 6.83383 12.0268 7.01024 11.8739 7.31604C11.7386 7.57479 11.8328 7.83353 12.0386 7.92763C12.3914 8.0864 12.5913 7.87469 12.8442 7.76297Z" fill="#999999"/>
</svg>

<svg xmlns="http://www.w3.org/2000/svg" width="24" height="24" fill="none" viewBox="0 0 24 24">
    <path fill="#181B1E" d="M12.003 2a10 10 0 1 1-.006 20 10 10 0 0 1 .006-20"/>
    <path fill="silver" d="M9.945 12.085c1.086.18 2.187.248 3.287.2a23 23 0 0 1-3.41-.017c-.765.782.029 1.387.135 2.04.323-.03.517-.1.746.041 2.159-.04 3.782.165 5.722-.658l.035-.37-.376-.148c.27-.382.218.047.235-.47.012-.206.024-.282-.217-.394-.188-1.764-1.453-1.582-2.8-1.453-.852.088-2.834.506-2.681-.647h-.188s-2.023.647-.494 1.882z"/>
    <path fill="#F6F6F6" d="M7.299 20.23c.411.218 2.023.964 2.587.923l.224-.047c-.277-1.047-.06-1.411-.041-1.823 0-.247-.06-.259-.089-.588l-.917-.317.012-4.217.905.135c-.1-.652.077-1.428-.164-2.017-.782-.117-1.888-.282-2.517-.646z"/>
    <path fill="silver" d="M10.086 18.701H9.98c.035.317.082.335.082.576-.005.424-.229.782.048 1.823l-.224.053c.023.018.065 0 .088.041.118.27 2.823.236 3.476.142 1.282-.183 1.793-.483 2.852-.836.588-.552.247-.893.917-1.181.041-.036-.87-.9-.905-.906-.495.035-.789.223-1.412.335-.523.088-1 .159-1.546.2-1.282.112-2.047-.153-3.27-.241zm2.693-3.558c.13.306.236 2.082 0 2.358-.57.682-.764-.006-2.234.265-.23-.335-.489-2.046-.294-2.57.094-.235.623-.259 1.176-.259.57 0 1.176.042 1.352.206m-2.787-.658.023 1.764c-.023.312-.106.67-.088 1.023.047.647.177.324-.006 1.035l.406.088c1.223.041 2.182.188 3.458.07.658-.058 2.487-.223 2.717-.681l.03-.559c-.524-.024-.348.159-.983.176-.365-.552-.441-1.764-.282-2.628.312-.177.805-.306 1.235-.477.082-.405.094-.194-.118-.311l-1.629.44c-.206.765-.094.23-.323.683-.118.217-.124.541-.2.765-.188-1.841.176-.518.123-1.388-1.67.14-2.775.017-4.363 0"/>
    <path fill="#9A9A9A" d="M10.61 10.221c-.053.47.011.353-.265.635 1.176.177 1.94.206 2.97.1.511-.059 1.24-.012 1.658.2.282.141.023.07.353-.082-.03.364-.018.394-.112.652.03-.011.059-.07.082-.04.024.023.189-.148.536-.248-.024.03-.053.03-.06.065-.011.041-.046.053-.058.07l-.135.271c.411-.035.264-.047.388.053-.294.118-.482-.053-.165.312l.206.076.041.012c.012 0 .035.012.041.023.236.106.224.177.224.389 0 .17.017.088-.241.47l.376.153-.035.37 1.47-.811v-2.07c-.594.27-.876.623-1.764.806.67-.347 1.752-.959 1.764-1.682a.9.9 0 0 0-.153-.483c-.147-.223-.235-.182-.382-.405-.177-.259-.06-.17-.318-.418l-.106.106c-.352.376-.558.565-1.029.823-.47.253-.964.406-1.558.524-1.13.217-2.517.34-3.728.13"/>
    <path fill="#C1C1C1" d="M7.299 20.23v-8.592a2.2 2.2 0 0 1-.565-.311c-.2-.153-.382-.312-.611-.4v8.409c.011.353.064.518 1.176.894"/>
    <path fill="#F0F0F0" d="M7.687 9.95c-.188.442-.377.977-.277 1.412.118.176.847.394 1.076.453.47.117.941.253 1.441.27l.318-1.635c.406-.74-.059.383.164-.229-.94-.117-1.605-.44-2.358-.63-.158.171-.2.219-.364.36"/>
    <path fill="#EBEBEB" d="M8.357 9.321c.54.47 2.605.706 3.546.718 1.047.023 2.999-.159 3.657-.718v-.153c-.176.071-1.776.47-2.081.424l-.006-.053-.641.159c-.524.023-1.306.011-1.788-.13-.864-.258-.588-.517-1-1.217.16-.453-.382-.2-.329-.63l-.747.142c-.27.03-.411.165-.564.341-.365.441-.447.635-.053 1.117z"/>
    <path fill="#C6C6C6" d="M11.985 8.134c-.194-.189-.34-.295-.352-.589-.012-.37.123-.37.335-.623l.7.041c.294.13.864 1.282-.683 1.176zm-1.2-1.394c-.27-1.212 1.16-1.241 1.43-.7.37.73-.882 1.117-1.43.706zm-.135-1.1c-.058.259-.058.041-.252.4l.023.5.347.794s1.63 2.258 2.64.952c.589-.752-1.01-2.164-1.223-2.705a4 4 0 0 0-.511-.053c-.33 0-.477.03-1.024.112"/>
    <path fill="#C1C1C1" d="M8.357 9.321c-.4-.482-.318-.676.059-1.105.159-.177.294-.312.564-.341l.618.088c-.059.435-.077.141-.241.594.405.694.823.764 1.705 1.023.47.141 1.247.159 1.782.13l.635-.16c-1.094-.04-2.152.089-2.387-.91l-.142-.154a3 3 0 0 0-.217-.188c-.459-.382-.665-.411-1.023-.882l-.094-.118c-.489 0-.953.295-1.241.565-.377.341-.647.576-.524 1.276l.5.177z"/>
    <path fill="#9A9A9A" d="M16.32 18.425c-.076.264.13.958-.094 1.152l.235.083c.018.488-.106.488-.147.852.57-.27 1.1-.564 1.57-.782v-2.293l-1.376.84c-.176.118-.059.006-.188.148"/>
    <path fill="silver" d="M13.48 9.598c.317.041 1.904-.353 2.08-.418v.147c.471-.13.636-.229.9-.476-.387-1.376-2.31-2.011-3.157-1.97l.27.465c.241.37.012.211.494.329.353.088 1 .259 1.176.482.559.706-.623 1-1.094 1.153-.135.04-.211.059-.311.111l-.353.177z"/>
    <path fill="#959595" d="M16.384 13.985c.212.129.2-.083.117.311.406-.164.377-.235.847-.24.088.617.047 1.252.041 1.91-.011 1.147-.376.724-.87 1.259l-.03.559c.471-.177.636-.236.994-.559.442-.341.4-.506.4-1.147v-2.905z"/>
    <path fill="#989898" d="M16.602 8.628c1.264-1.676-2.382-2.535-3.84-2.588.259.553.259.459.93.588 2.192.447 2.469 1.317 2.869 1.94a.15.15 0 0 1 .041.06"/>
    <path fill="#F3F3F3" d="M9.922 18.307c.188-.712.058-.382.006-1.035-.018-.353.064-.712.088-1.023l-.024-1.764-.753-.083c.171.665.042 2.388.077 3.282.018.54.059.523.606.623"/>
    <path fill="#989898" d="m10.415 6.54-.017-.5c-.236.3-.206.03-1.094.3-.553.176-.706.235-1.176.47-.63.324-1.435 1.03-.718 1.853.012-.018.035-.07.041-.059.047.118.065-.1.089-.118 1.134-1.799 1.94-1.27 2.881-1.94z"/>
    <path fill="#C1C1C1" d="M7.417 11.368c.011-.512.082-.976.27-1.412-.512-.123-.776-.411-1-.746-.247.117-.305.111-.411.458-.083.283-.083.565.017.835.147.36.794.73 1.118.865z"/>
    <path fill="#B7B7B7" d="M15.65 16.702c.423.029 1.046-.118 1.346-.26.388-.176.282-.558.3-.917-.159.136-.112.16-.153.277-.088.317.041.364-.576.43l-.206-.418-.83.105c0 .294.012.541.118.777z"/>
    <path fill="#676767" d="M9.98 18.701h.106v-.317h.235l-.4-.089c-.547-.1-.588-.082-.605-.623-.036-.894.094-2.594-.077-3.258l.753.082c.17-.1-.07-.106.347-.147h.376c-.235-.14-.411-.094-.735-.064l-.905-.13-.012 4.21.917.33z"/>
    <path fill="#9A9A9A" d="m9.604 7.28.094.118c.352.477.576.506 1.023.888q.117.09.223.189l.135.153c.053-.236.118-.33.189-.483l-.5-.811-.306-.37c-.312.058-.606.1-.858.317"/>
    <path fill="silver" d="m10.85 16.631 1.723.07.018-.564c-1.623.059-.235.165-1.447.294l-.317-.318z"/>
    <path fill="#9A9A9A" d="M6.693 9.21c.217.329.476.623.993.74.165-.14.206-.188.37-.37-.017-.017-.04-.082-.046-.059-.012.018-.047-.053-.059-.058L7.54 9.15c-.2-.153-.276-.253-.482-.453-.106.13-.094.112-.176.235z"/>
    <path fill="#999" d="M11.068 6.734c.459.07.741-.118 1.047-.282l-.076-.453c-.706-.147-1.376.041-.97.735m1.776 1.029c.012-.93-.817-.753-.97-.447-.135.259-.041.518.165.612.352.158.552-.053.805-.165"/>
</svg>
